X:1
T:Royal Garden Blues
T:Royal Garden Blues
T:Clarence & Spencer WIlliams - 1919
L:1/8
M:4/4
K:F
V:1 treble nm="P1"
V:1
"F" A2 AF B c3 | A2 AF B c3 | A2 c2"Abdim" d2 f2 |"C7" g2 z2 !^!c2 z2 |:"F""^A""^A" A2 AF B c3 | %5
w: |||||
 A2 AF B c3 | A2 AF B c2 B | A F2 G"F7" G2 z2 |"Bb" G2 GF"F+7" G A3 |"Bb" G2 GF"F+7" G A3 | %10
w: |||||
"Bb" G2 GF"F+7" G A2 F |"Bb" G F2 D- D4 |"C7""^B" C4 D2 ^D2 | E2 _A2"Db7" A"C7" G3 |"F""Bb7" F8- | %15
w: ||Cornet * *|* Clarinet * *||
"F" F2 z2"C7" z4 ::"F7""^B" (3c"^Stop time - Play downbeats 4 bars"dc A F _E2 z2 | %17
w: ||
"F7" (3cdc A F _E2 z2 |"F7" (3c"^Trombone"dc A F _E2 z2 |"F7" (3C"^Tuba"DC A, F, _E,2 z2 | %20
w: |||
"Bb" z2 GF G2 z2 | z ^C DF"Db7" _A"C7" G3 |"F" F8- | FG^GA"Abdim" e d3 |"C7" c8- | c^DEB- B2 A2 | %26
w: ||||||
"F""Bb7" F8- |"F" F6"C7" z2 :|[K:Bb]"F7""^C""^C" F2 F2 G A3 |"Bb" F2 F2 G A3 |"Bbm" F2 F2 G A3 | %31
w: |||||
"F" F2 z2"F7" F2 z2 |:"Bb""^D" B2 z2 Bc^cd | B B2 B- B2 z2 | B2 z2 Bc^cd |"Bb7" B B2 B- B2 z2 |] %36
w: |||||
"Eb7" B2 z2 B=Bc_d |"Ebm" B B2 B- B2 z2 |"Bb" B2 z2"Eb7" Bc^cd |"G7" =B B2 B- B2 z2 | %40
w: ||||
"C7" G2 z2 Bc^cd |"F7" F F2 F- F z z2 |"Bb" B2 z2"Eb7" B2 z2 | %43
w: |||
"Bb""^Back to \"D\" for Solos" B2"Eb7" B2"Bb" B2 z2 :| %44
w: |

